web/public/images/prisma.svg

<svg fill="none" height="42" viewBox="0 0 36 42" width="36" xmlns="http://www.w3.org/2000/svg" xmlns:xlink="http://www.w3.org/1999/xlink"><clipPath id="a"><path d="m.607544 0h34.8v42h-34.8z"/></clipPath><g clip-path="url(#a)"><path d="m35.1781 31.9089-14.4519-30.58821c-.1796-.376368-.4579-.697351-.8056-.92898-.3476-.23163-.7516-.3652905-1.1692-.3868384-.4184-.0279445-.8364.05898-1.2087.2513204-.3723.19234-.6845.482732-.9028.839598l-15.674538 25.30281c-.238339.3821-.362461.8239-.357814 1.2738.004646.4498.137869.8891.38405 1.2661l7.663342 11.8279c.28992.444.71609.7827 1.21495.9656.49891.1828 1.04371.2 1.55311.0491l22.2393-6.5564c.3348-.0976.6448-.2656.9088-.4929.2641-.2272.4761-.5083.6218-.8243.1437-.3143.2168-.656.2145-1.0013-.0024-.3454-.0803-.6861-.2282-.9984zm-3.2356 1.3119-18.8712 5.5616c-.5757.1707-1.1283-.3267-1.0085-.9057l6.7422-32.17527c.126-.60196.9601-.69734 1.2238-.14023l12.481 26.4157c.0552.1177.0841.2459.0847.3758.0007.1299-.027.2584-.081.3767-.054.1182-.1331.2234-.2319.3082-.0987.0848-.2147.1472-.34.183z" fill="#a86338"/></g></svg>

<svg width="36" height="42" viewBox="0 0 36 42" fill="none" xmlns="http://www.w3.org/2000/svg">
<g clip-path="url(#clip0_26_107)">
<path d="M35.1781 31.9089L20.7262 1.32069C20.5466 0.944322 20.2683 0.623339 19.9206 0.39171C19.573 0.16008 19.169 0.0264195 18.7514 0.0048716C18.333 -0.0230729 17.915 0.0638516 17.5427 0.256192C17.1704 0.448532 16.8582 0.738924 16.6399 1.09579L0.965362 26.3986C0.727023 26.7807 0.602901 27.2225 0.607548 27.6724C0.612194 28.1222 0.745417 28.5615 0.991598 28.9385L8.65494 40.7664C8.94486 41.2104 9.37103 41.5491 9.86989 41.732C10.3688 41.9148 10.9136 41.932 11.423 41.7811L33.6623 35.2247C33.9971 35.1271 34.3071 34.9591 34.5711 34.7318C34.8352 34.5046 35.0472 34.2235 35.1929 33.9075C35.3366 33.5932 35.4097 33.2515 35.4074 32.9062C35.405 32.5608 35.3271 32.2201 35.1792 31.9078L35.1781 31.9089ZM31.9425 33.2208L13.0713 38.7824C12.4956 38.9531 11.943 38.4557 12.0628 37.8767L18.805 5.70143C18.931 5.09947 19.7651 5.00409 20.0288 5.5612L32.5098 31.9769C32.565 32.0946 32.5939 32.2228 32.5945 32.3527C32.5952 32.4826 32.5675 32.6111 32.5135 32.7294C32.4595 32.8476 32.3804 32.9528 32.2816 33.0376C32.1829 33.1224 32.0669 33.1848 31.9416 33.2206L31.9425 33.2208Z" fill="#A86338"/>
</g>
<defs>
<clipPath id="clip0_26_107">
<rect width="34.8" height="42" fill="white" transform="translate(0.607544)"/>
</clipPath>
</defs>
</svg>
